svg/file_cloud_outline.svg

<svg xmlns="http://www.w3.org/2000/svg" viewBox="0 0 24 24"><path d="M14 2H6a2 2 0 0 0-2 2v16c0 1.11.89 2 2 2h12c1.11 0 2-.89 2-2V8zm4 18H6V4h7v5h5zm-1-3.08c0 1.15-.93 2.08-2.08 2.08H9.5A2.5 2.5 0 0 1 7 16.5c0-1.29 1-2.35 2.23-2.5.52-1 1.56-1.67 2.77-1.67 1.5 0 2.78 1.09 3.07 2.5 1.07.1 1.93.99 1.93 2.09"/></svg>

<?xml version="1.0" encoding="UTF-8"?><!DOCTYPE svg PUBLIC "-//W3C//DTD SVG 1.1//EN" "http://www.w3.org/Graphics/SVG/1.1/DTD/svg11.dtd"><svg xmlns="http://www.w3.org/2000/svg" xmlns:xlink="http://www.w3.org/1999/xlink" version="1.1" id="mdi-file-cloud-outline" width="24" height="24" viewBox="0 0 24 24"><path d="M14 2H6C4.89 2 4 2.9 4 4V20C4 21.11 4.89 22 6 22H18C19.11 22 20 21.11 20 20V8L14 2M18 20H6V4H13V9H18V20M17 16.92C17 18.07 16.07 19 14.92 19H9.5C8.12 19 7 17.88 7 16.5C7 15.21 8 14.15 9.23 14C9.75 13 10.79 12.33 12 12.33C13.5 12.33 14.78 13.42 15.07 14.83C16.14 14.93 17 15.82 17 16.92Z" /></svg>
